assets/icons/qvision/pest_control_rodent.svg

<svg xmlns="http://www.w3.org/2000/svg" enable-background="new 0 0 24 24" height="24" viewBox="0 0 24 24" width="24"><g><rect fill="none" height="24" width="24"/></g><g><path d="M21.31,17.38l-2.39-2.13C19.44,12.89,17.56,11,15.5,11c-1.16,0-3.5,0.9-3.5,3.5c0,0.97,0.39,1.84,1.03,2.47l-0.71,0.71 C11.5,16.87,11,15.74,11,14.5c0-1.7,0.96-3.17,2.35-3.93c-0.7-0.36-1.48-0.57-2.28-0.57c-2.38,0-4.37,1.65-4.91,3.87 C4.91,13.5,4,12.36,4,11c0-1.66,1.34-3,3-3c0.94,0,1.56,0,2.5,0C10.88,8,12,6.88,12,5.5C12,4.12,10.88,3,9.5,3H8C7.45,3,7,3.45,7,4 c0,0.55,0.45,1,1,1h1.5C9.78,5,10,5.22,10,5.5C10,5.78,9.78,6,9.5,6C9.47,6,9,6,7,6c-2.76,0-5,2.24-5,5c0,2.42,1.72,4.44,4,4.9 v0.03C6,18.73,8.27,21,11.07,21h8.86C21.8,21,22.74,18.66,21.31,17.38z M18,19c-0.55,0-1-0.45-1-1c0-0.55,0.45-1,1-1s1,0.45,1,1 C19,18.55,18.55,19,18,19z"/></g></svg>

<svg width="24" height="24" viewBox="0 0 24 24" fill="none" xmlns="http://www.w3.org/2000/svg">
<g clip-path="url(#clip0_147_5581)">
<path d="M21.31 17.38L18.92 15.25C19.44 12.89 17.56 11 15.5 11C14.34 11 12 11.9 12 14.5C12 15.47 12.39 16.34 13.03 16.97L12.32 17.68C11.5 16.87 11 15.74 11 14.5C11 12.8 11.96 11.33 13.35 10.57C12.65 10.21 11.87 10 11.07 10C8.69 10 6.7 11.65 6.16 13.87C4.91 13.5 4 12.36 4 11C4 9.34 5.34 8 7 8C7.94 8 8.56 8 9.5 8C10.88 8 12 6.88 12 5.5C12 4.12 10.88 3 9.5 3H8C7.45 3 7 3.45 7 4C7 4.55 7.45 5 8 5H9.5C9.78 5 10 5.22 10 5.5C10 5.78 9.78 6 9.5 6C9.47 6 9 6 7 6C4.24 6 2 8.24 2 11C2 13.42 3.72 15.44 6 15.9V15.93C6 18.73 8.27 21 11.07 21H19.93C21.8 21 22.74 18.66 21.31 17.38ZM18 19C17.45 19 17 18.55 17 18C17 17.45 17.45 17 18 17C18.55 17 19 17.45 19 18C19 18.55 18.55 19 18 19Z" fill="#323232"/>
</g>
<defs>
<clipPath id="clip0_147_5581">
<rect width="24" height="24" fill="white"/>
</clipPath>
</defs>
</svg>
